;FLAVOR:Marlin
;TIME:3293
;Filament used: 1.88308m
;Layer height: 0.1
;Generated with Cura_SteamEngine 3.0.4
M190 S60
M104 S210
M109 S210
M82 ; absolute extrusion mode
G28 ;Home
G1 Z15.0 F6000 ;Move the platform down 15mm
;Prime the extruder
G92 E0
G1 F200 E3
G92 E0
;LAYER_COUNT:88
;LAYER:-9
M107
G0 F2250 X45.463 Y43.415 Z0.36
G1 F1125 X45.977 Y42.951 E0.08291
G1 X46.445 Y42.573 E0.15494
G1 X47.273 Y41.996 E0.27578
G1 X49.896 Y40.408 E0.64293
G1 X50.799 Y39.935 E0.76498
G1 X51.349 Y39.695 E0.83683
G1 X52.129 Y39.409 E0.93631
G1 X55.219 Y38.48 E1.32265
G1 X56.06 Y38.286 E1.426
G1 X56.638 Y38.191 E1.49613
G1 X57.367 Y38.114 E1.58391
G1 X60.601 Y37.974 E1.9715
G1 X61.452 Y37.988 E2.07341
G1 X62.185 Y38.05 E2.16149
G1 X63.044 Y38.182 E2.26555
G1 X66.053 Y38.822 E2.63389
G1 X66.985 Y39.08 E2.74969
G1 X67.563 Y39.286 E2.82316
G1 X68.374 Y39.632 E2.92873
G1 X71.242 Y41.062 E3.31246
G1 X71.979 Y41.492 E3.41462
G1 X72.484 Y41.833 E3.48758
G1 X73.155 Y42.347 E3.58879
G1 X75.485 Y44.358 E3.95732
G1 X76.097 Y44.951 E4.05936
G1 X76.512 Y45.403 E4.13283
G1 X77.135 Y46.188 E4.25282
G1 X78.876 Y48.693 E4.61809
G1 X79.33 Y49.434 E4.72215
G1 X79.623 Y49.982 E4.79655
G1 X79.975 Y50.762 E4.89902
G1 X81.1 Y53.774 E5.284
G1 X81.355 Y54.608 E5.38842
G1 X81.489 Y55.165 E5.45702
G1 X81.524 Y55.336 E5.47792
G1 X81.658 Y56.158 E5.57764
G1 X81.989 Y59.329 E5.95939
G1 X82.022 Y60.213 E6.06531
G1 X82.005 Y60.829 E6.13909
G1 X81.946 Y61.521 E6.22225
G1 X81.479 Y64.717 E6.60899
G1 X81.302 Y65.573 E6.71365
G1 X81.151 Y66.128 E6.78252
G1 X80.821 Y67.075 E6.9026
G1 X79.572 Y70.037 E7.2875
G1 X79.181 Y70.813 E7.39155
G1 X78.96 Y71.197 E7.4446
G1 X78.882 Y71.325 E7.46254
G1 X78.407 Y72.032 E7.56453
G1 X76.543 Y74.486 E7.93352
G1 X75.996 Y75.13 E8.03469
G1 X75.564 Y75.58 E8.10938
G1 X74.932 Y76.154 E8.21161
G1 X72.319 Y78.228 E8.61105
G1 X71.7 Y78.656 E8.70116
G1 X71.2 Y78.964 E8.77148
G1 X70.424 Y79.374 E8.87656
G1 X67.532 Y80.666 E9.25583
G1 X67.346 Y80.742 E9.27989
G1 X66.538 Y81.037 E9.38288
G1 X65.984 Y81.199 E9.45199
G1 X65.313 Y81.356 E9.5345
G1 X65.138 Y81.391 E9.55587
G1 X61.999 Y81.918 E9.93699
G1 X61.126 Y82.005 E10.04203
G1 X60.52 Y82.026 E10.11464
G1 X59.673 Y82.005 E10.21609
G1 X56.472 Y81.734 E10.60073
G1 X55.738 Y81.624 E10.6896
G1 X55.182 Y81.51 E10.75756
G1 X54.204 Y81.237 E10.87914
G1 X51.165 Y80.174 E11.26464
G1 X50.389 Y79.845 E11.36556
G1 X49.853 Y79.575 E11.43742
G1 X49.229 Y79.215 E11.52368
G1 X49.091 Y79.129 E11.54315
G1 X46.412 Y77.344 E11.9286
G1 X45.836 Y76.905 E12.01532
G1 X45.291 Y76.433 E12.10165
G1 X44.677 Y75.825 E12.20511
G1 X42.631 Y73.554 E12.57111
G1 X42.082 Y72.871 E12.67603
G1 X41.656 Y72.255 E12.76571
G1 X41.298 Y71.666 E12.84824
G1 X41.205 Y71.5 E12.87102
G1 X39.794 Y68.803 E13.23548
G1 X39.387 Y67.885 E13.35572
G1 X39.183 Y67.325 E13.42708
G1 X38.942 Y66.513 E13.5285
G1 X38.239 Y63.515 E13.8972
G1 X38.204 Y63.344 E13.9181
G1 X38.086 Y62.646 E14.00286
G1 X38.01 Y61.905 E14.09205
G1 X37.98 Y61.068 E14.19234
G1 X38.05 Y57.866 E14.57583
G1 X38.126 Y57.002 E14.67968
G1 X38.218 Y56.404 E14.75212
G1 X38.4 Y55.567 E14.85468
G1 X39.275 Y52.454 E15.24187
G1 X39.557 Y51.656 E15.34321
G1 X39.804 Y51.083 E15.41792
G1 X40.179 Y50.336 E15.518
G1 X41.783 Y47.566 E15.90127
G1 X42.279 Y46.83 E16.00754
G1 X42.629 Y46.374 E16.07636
G1 X43.187 Y45.733 E16.17812
G1 X45.463 Y43.415 E16.5671
G0 F2250 X44.8 Y44.09
G1 F1125 X44.8 Y75.946 E20.38142
G0 F2250 X46.4 Y77.334
G1 F1125 X46.4 Y42.609 E24.53927
G0 F2250 X48 Y41.555
G1 F1125 X48 Y78.402 E28.9512
G0 F2250 X49.6 Y79.429
G1 F1125 X49.6 Y40.587 E33.60201
G0 F2250 X51.2 Y39.76
G1 F1125 X51.2 Y80.186 E38.44247
G0 F2250 X52.8 Y80.745
G1 F1125 X52.8 Y39.207 E43.41609
G0 F2250 X54.4 Y38.726
G1 F1125 X54.4 Y81.291 E48.51267
G0 F2250 X56 Y81.663
G1 F1125 X56 Y38.299 E53.70492
G0 F2250 X57.6 Y38.103
G1 F1125 X57.6 Y81.829 E58.94052
G0 F2250 X59.2 Y81.964
G1 F1125 X59.2 Y38.034 E64.20055
G0 F2250 X60.8 Y37.978
G1 F1125 X60.8 Y82.017 E69.47362
G0 F2250 X62.4 Y81.851
G1 F1125 X62.4 Y38.084 E74.71413
G0 F2250 X64 Y38.386
G1 F1125 X64 Y81.583 E79.88638
G0 F2250 X65.6 Y81.289
G1 F1125 X65.6 Y38.726 E84.98273
G0 F2250 X67.2 Y39.157
G1 F1125 X67.2 Y80.796 E89.96844
G0 F2250 X68.8 Y80.1
G1 F1125 X68.8 Y39.845 E94.78843
G0 F2250 X70.4 Y40.643
G1 F1125 X70.4 Y79.385 E99.42726
G0 F2250 X72 Y78.449
G1 F1125 X72 Y41.507 E103.85056
G0 F2250 X73.6 Y42.732
G1 F1125 X73.6 Y77.212 E107.97908
G0 F2250 X75.2 Y75.911
G1 F1125 X75.2 Y44.113 E111.78646
G0 F2250 X76.8 Y45.766
G1 F1125 X76.8 Y74.148 E115.18482
G0 F2250 X78.4 Y72.042
G1 F1125 X78.4 Y48.009 E118.06245
G0 F2250 X80 Y50.829
G1 F1125 X80 Y69.022 E120.24081
G0 F2250 X81.6 Y63.889
G1 F1125 X81.6 Y55.803 E121.209
G0 F2250 X43.2 Y45.719
G1 F1125 X43.2 Y74.185 E124.61742
G0 F2250 X41.6 Y72.162
G1 F1125 X41.6 Y47.882 E127.52462
G0 F2250 X40 Y50.692
G1 F1125 X40 Y69.196 E129.74023
G0 F2250 X38.4 Y64.201
G1 F1125 X38.4 Y55.567 E130.77403
G0 F2250 X45.148 Y43.734
;TIME_ELAPSED:63.061212
;LAYER:-8
M140 S60
G0 X45.148 Y43.734 Z0.51
;TYPE:SUPPORT
G1 F1125 X44.447 Y44.447 E130.82392
G1 X75.571 Y75.571 E133.01988
G1 X75.563 Y75.579 E133.02045
G1 X74.931 Y76.153 E133.06304
G1 X74.823 Y76.238 E133.0699
G1 X43.746 Y45.16 E135.26258
G1 X43.186 Y45.732 E135.30252
G1 X43.054 Y45.882 E135.31249
G1 X74.035 Y76.863 E137.49837
G1 X73.247 Y77.489 E137.54857
G1 X42.412 Y46.654 E139.72415
G1 X42.278 Y46.829 E139.73515
G1 X41.833 Y47.489 E139.77486
G1 X72.458 Y78.115 E141.93565
G1 X72.318 Y78.227 E141.9446
G1 X71.699 Y78.655 E141.98214
G1 X71.627 Y78.698 E141.98633
G1 X41.309 Y48.38 E144.12543
G1 X40.791 Y49.276 E144.17706
G1 X70.726 Y79.212 E146.28917
G1 X70.424 Y79.373 E146.30625
G1 X69.766 Y79.666 E146.34218
G1 X40.272 Y50.172 E148.42314
G1 X40.178 Y50.335 E148.43253
G1 X39.803 Y51.082 E148.47423
G1 X39.792 Y51.106 E148.47555
G1 X68.789 Y80.103 E150.52144
G1 X67.811 Y80.539 E150.57486
G1 X39.392 Y52.12 E152.57998
G1 X39.275 Y52.453 E152.59759
G1 X39.063 Y53.205 E152.63657
G1 X66.798 Y80.941 E154.59346
G1 X66.538 Y81.036 E154.60727
G1 X65.984 Y81.198 E154.63606
G1 X65.706 Y81.262 E154.6503
G1 X38.752 Y54.309 E156.55201
G1 X38.442 Y55.413 E156.60922
G1 X64.522 Y81.493 E158.4493
G1 X63.311 Y81.696 E158.51056
G1 X38.19 Y56.575 E160.28299
G1 X38.125 Y57.001 E160.30449
G1 X38.05 Y57.849 E160.34696
G1 X62.1 Y81.899 E162.04381
G1 X61.999 Y81.916 E162.04892
G1 X61.125 Y82.003 E162.09274
G1 X60.801 Y82.015 E162.10892
G1 X38.019 Y59.232 E163.71635
G1 X37.989 Y60.616 E163.78541
G1 X59.349 Y81.977 E165.29251
G1 X57.803 Y81.845 E165.36992
G1 X38.026 Y62.067 E166.76533
G1 X38.086 Y62.645 E166.79432
G1 X38.204 Y63.343 E166.82964
G1 X38.238 Y63.513 E166.83829
G1 X38.294 Y63.749 E166.85039
G1 X56.242 Y81.698 E168.11675
G1 X55.737 Y81.623 E168.14223
G1 X55.181 Y81.508 E168.17055
G1 X54.428 Y81.298 E168.20955
G1 X38.726 Y65.596 E169.31741
G1 X38.941 Y66.511 E169.36431
G1 X39.182 Y67.324 E169.40661
G1 X39.264 Y67.548 E169.41851
G1 X52.278 Y80.562 E170.33672
G1 X51.164 Y80.173 E170.39559
G1 X50.389 Y79.844 E170.43759
G1 X49.898 Y79.596 E170.46504
G1 X40.551 Y70.249 E171.12452
G1 X41.205 Y71.499 E171.1949
G1 X41.297 Y71.665 E171.20437
G1 X41.656 Y72.254 E171.23878
G1 X42.082 Y72.87 E171.27615
G1 X42.631 Y73.553 E171.31987
G1 X44.368 Y75.48 E171.4493
G1 X45.503 Y76.616 E171.52941
G0 F2250 X76.248 Y74.833
G1 F1125 X45.148 Y43.734 E173.72365
G0 F2250 X45.872 Y43.044
G1 F1125 X76.875 Y74.047 E175.91108
G1 X76.542 Y74.485 E175.93853
G1 X76.248 Y74.833 E175.96126
G0 F2250 X77.486 Y73.243
G1 F1125 X46.663 Y42.42 E178.13599
G1 X46.444 Y42.573 E178.14932
G1 X45.976 Y42.951 E178.17933
G1 X45.872 Y43.044 E178.18629
G0 F2250 X47.509 Y41.852
G1 F1125 X78.097 Y72.44 E180.34444
G1 X77.486 Y73.243 E180.39478
G0 F2250 X78.686 Y71.615
G1 F1125 X48.39 Y41.319 E182.53233
G1 X47.509 Y41.852 E182.5837
G0 F2250 X49.271 Y40.785
G1 F1125 X79.22 Y70.734 E184.69676
G1 X79.18 Y70.812 E184.70113
G1 X78.959 Y71.197 E184.72328
G1 X78.881 Y71.325 E184.73076
G1 X78.686 Y71.615 E184.74819
G0 F2250 X79.68 Y69.78
G1 F1125 X50.165 Y40.266 E186.8306
G1 X49.895 Y40.407 E186.8458
G1 X49.271 Y40.785 E186.8822
G0 F2250 X51.111 Y39.798
G1 F1125 X80.099 Y68.785 E188.92742
G1 X79.68 Y69.78 E188.98128
G0 F2250 X80.518 Y67.791
G1 F1125 X52.135 Y39.407 E190.98389
G1 X52.128 Y39.409 E190.98426
G1 X51.347 Y39.694 E191.02573
G1 X51.111 Y39.798 E191.0386
G0 F2250 X53.222 Y39.08
G1 F1125 X80.923 Y66.781 E192.99305
G1 X80.82 Y67.075 E193.0086
G1 X80.518 Y67.791 E193.04737
G0 F2250 X81.264 Y65.708
G1 F1125 X54.31 Y38.753 E194.94915
G1 X53.222 Y39.08 E195.00583
G0 F2250 X55.407 Y38.436
G1 F1125 X81.505 Y64.534 E196.84719
G1 X81.478 Y64.717 E196.85641
G1 X81.301 Y65.572 E196.89997
G1 X81.264 Y65.708 E196.90701
G0 F2250 X81.685 Y63.3
G1 F1125 X56.585 Y38.2 E198.67795
G1 X56.059 Y38.285 E198.70453
G1 X55.407 Y38.436 E198.73792
G0 F2250 X57.89 Y38.091
G1 F1125 X81.865 Y62.067 E200.42952
G1 X81.685 Y63.3 E200.49169
G0 F2250 X82.005 Y60.792
G1 F1125 X59.246 Y38.033 E202.09746
G1 X57.89 Y38.091 E202.16517
G0 F2250 X60.602 Y37.975
G1 F1125 X81.989 Y59.362 E203.67414
G1 X82.021 Y60.212 E203.71657
G1 X82.005 Y60.792 E203.74552
G0 F2250 X81.827 Y57.786
G1 F1125 X62.082 Y38.04 E205.13867
G1 X61.451 Y37.987 E205.17027
G1 X60.602 Y37.975 E205.21263
G0 F2250 X63.798 Y38.342
G1 F1125 X81.663 Y56.207 E206.4731
G1 X81.827 Y57.786 E206.5523
G0 F2250 X81.299 Y54.429
G1 F1125 X65.594 Y38.724 E207.66037
G1 X63.798 Y38.342 E207.75198
G0 F2250 X67.576 Y39.292
G1 F1125 X80.528 Y52.243 E208.66578
G1 X81.099 Y53.774 E208.7473
G1 X81.299 Y54.429 E208.78147
G0 F2250 X79.555 Y49.857
G1 F1125 X70.282 Y40.584 E209.43573
G1 X68.372 Y39.631 E209.54222
G1 X67.576 Y39.292 E209.58538
G0 F2250 X75.381 Y44.269
G1 F1125 X76.463 Y45.351 E209.66172
G1 X76.511 Y45.402 E209.66522
G1 X77.134 Y46.188 E209.71526
G1 X78.874 Y48.692 E209.86738
G1 X79.328 Y49.433 E209.91074
G1 X79.555 Y49.857 E209.93473
G0 F2250 X44.609 Y44
;TIME_ELAPSED:151.241619
;LAYER:-7
G0 X44.609 Y44 Z0.61
G1 F1500 X45.001 Y43.6 E209.94405
G1 X74.915 Y43.6 E210.44152
G1 X74.451 Y43.2 E210.4517
G1 X45.403 Y43.2 E210.93477
G1 X45.838 Y42.807 E210.94452
G1 X45.847 Y42.8 E210.94471
G1 X73.987 Y42.8 E211.41268
G1 X73.524 Y42.4 E211.42286
G1 X46.345 Y42.4 E211.87485
G1 X46.913 Y42 E211.8864
G1 X73.033 Y42 E212.32078
G1 X72.611 Y41.677 E212.32962
G1 X72.497 Y41.6 E212.3319
G1 X47.55 Y41.6 E212.74677
G1 X48.208 Y41.2 E212.75958
G1 X71.877 Y41.2 E213.1532
G1 X71.331 Y40.881 E213.16371
G1 X71.169 Y40.8 E213.16672
G1 X48.866 Y40.8 E213.53763
G1 X49.525 Y40.4 E213.55045
G1 X70.366 Y40.4 E213.89703
G1 X69.563 Y40 E213.91195
G1 X50.237 Y40 E214.23334
G1 X50.724 Y39.75 E214.24245
G1 X51.068 Y39.6 E214.24869
G1 X68.761 Y39.6 E214.54292
G1 X68.457 Y39.449 E214.54857
G1 X67.869 Y39.2 E214.55919
G1 X52.128 Y39.2 E214.82096
G1 X53.458 Y38.8 E214.84406
G1 X66.734 Y38.8 E215.06484
G1 X66.106 Y38.628 E215.07567
G1 X65.034 Y38.4 E215.09389
G1 X54.788 Y38.4 E215.26429
G1 X55.163 Y38.287 E215.2708
G1 X55.898 Y38.115 E215.28335
G1 X56.514 Y38.006 E215.29376
G1 X56.569 Y38 E215.29468
G1 X63.152 Y38 E215.40415
G0 F2250 X75.378 Y44
G1 F1500 X44.609 Y44 E215.91584
G0 F2250 X44.216 Y44.4
G1 F1500 X75.816 Y44.4 E216.44135
G1 X75.621 Y44.21 E216.44588
G1 X75.378 Y44 E216.45122
G0 F2250 X76.225 Y44.8
G1 F1500 X76.345 Y44.918 E216.45402
G1 X76.596 Y45.2 E216.4603
G1 X43.43 Y45.2 E217.01185
G1 X43.044 Y45.593 E217.02101
G1 X43.038 Y45.6 E217.02117
G1 X76.928 Y45.6 E217.58476
G1 X77.242 Y46 E217.59322
G1 X42.69 Y46 E218.16782
G1 X42.477 Y46.244 E218.1732
G1 X42.357 Y46.4 E218.17648
G1 X77.526 Y46.4 E218.76134
G1 X77.804 Y46.8 E218.76944
G1 X42.058 Y46.8 E219.3639
G1 X41.788 Y47.2 E219.37192
G1 X78.082 Y47.2 E219.9755
G1 X78.36 Y47.6 E219.9836
G1 X41.533 Y47.6 E220.59603
G1 X41.301 Y48 E220.60372
G1 X78.639 Y48 E221.22466
G1 X78.917 Y48.4 E221.23276
G1 X41.069 Y48.4 E221.86217
G1 X40.838 Y48.8 E221.86985
G1 X79.181 Y48.8 E222.5075
G1 X79.42 Y49.2 E222.51525
G1 X40.606 Y49.2 E223.16073
G1 X40.375 Y49.6 E223.16841
G1 X79.648 Y49.6 E223.82152
G1 X79.854 Y50 E223.829
G1 X40.143 Y50 E224.4894
G1 X40.006 Y50.236 E224.49394
G1 X39.929 Y50.38 E224.49665
G1 X39.92 Y50.4 E224.49702
G1 X80.031 Y50.4 E225.16407
G1 X80.207 Y50.8 E225.17134
G1 X39.725 Y50.8 E225.84455
G1 X39.542 Y51.175 E225.85149
G1 X39.532 Y51.2 E225.85194
G1 X80.356 Y51.2 E226.53085
G1 X80.505 Y51.6 E226.53795
G1 X39.368 Y51.6 E227.22206
G1 X39.316 Y51.727 E227.22434
G1 X39.223 Y52 E227.22913
G1 X80.654 Y52 E227.91814
G1 X80.803 Y52.4 E227.92523
G1 X39.086 Y52.4 E228.61899
G1 X39.04 Y52.534 E228.62135
G1 X38.967 Y52.8 E228.62593
G1 X80.952 Y52.8 E229.32415
G1 X81.101 Y53.2 E229.33125
G1 X38.855 Y53.2 E230.0338
G1 X38.744 Y53.6 E230.0407
G1 X81.25 Y53.6 E230.74758
G1 X81.29 Y53.71 E230.74953
G1 X81.379 Y54 E230.75457
G1 X38.633 Y54 E231.46544
G1 X38.522 Y54.4 E231.47234
G1 X81.501 Y54.4 E232.18709
G1 X81.546 Y54.55 E232.18969
G1 X81.605 Y54.8 E232.19396
G1 X38.411 Y54.8 E232.91228
G1 X38.3 Y55.2 E232.91919
G1 X81.698 Y55.2 E233.6409
G1 X81.721 Y55.301 E233.64262
G1 X81.77 Y55.6 E233.64766
G1 X38.189 Y55.6 E234.37241
G1 X38.175 Y55.647 E234.37323
G1 X38.101 Y56 E234.37923
G1 X81.835 Y56 E235.10653
G1 X81.857 Y56.136 E235.10882
G1 X81.885 Y56.4 E235.11323
G1 X38.018 Y56.4 E235.84274
G1 X37.958 Y56.8 E235.84947
G1 X81.927 Y56.8 E236.58068
G1 X81.968 Y57.2 E236.58736
G1 X37.904 Y57.2 E237.32015
G1 X37.871 Y57.6 E237.32683
G1 X82.01 Y57.6 E238.06086
G1 X82.052 Y58 E238.06755
G1 X37.847 Y58 E238.80268
G1 X37.839 Y58.4 E238.80934
G1 X82.094 Y58.4 E239.5453
G1 X82.135 Y58.8 E239.55199
G1 X37.831 Y58.8 E240.28876
G1 X37.823 Y59.2 E240.29542
G1 X82.177 Y59.2 E241.03303
G1 X82.189 Y59.319 E241.03502
G1 X82.202 Y59.6 E241.0397
G1 X37.813 Y59.6 E241.77789
G1 X37.805 Y60 E241.78454
G1 X82.219 Y60 E242.52315
G1 X82.221 Y60.065 E242.52423
G1 X82.216 Y60.4 E242.5298
G1 X37.797 Y60.4 E243.26849
G1 X37.789 Y60.8 E243.27515
G1 X82.203 Y60.8 E244.01375
G1 X82.172 Y61.2 E244.02043
G1 X37.781 Y61.2 E244.75865
G1 X37.78 Y61.209 E244.7588
G1 X37.796 Y61.6 E244.76531
G1 X82.136 Y61.6 E245.50269
G1 X82.077 Y62 E245.50941
G1 X37.817 Y62 E246.24546
G1 X37.858 Y62.4 E246.25214
G1 X82.018 Y62.4 E246.98653
G1 X81.959 Y62.8 E246.99325
G1 X37.908 Y62.8 E247.72582
G1 X37.975 Y63.2 E247.73257
G1 X81.9 Y63.2 E248.46304
G1 X81.841 Y63.6 E248.46977
G1 X38.052 Y63.6 E249.19798
G1 X38.146 Y64 E249.20481
G1 X81.782 Y64 E249.93048
G1 X81.723 Y64.4 E249.93721
G1 X38.24 Y64.4 E250.66033
G1 X38.333 Y64.8 E250.66716
G1 X81.664 Y64.8 E251.38776
G1 X81.653 Y64.88 E251.3891
G1 X81.583 Y65.2 E251.39455
G1 X38.427 Y65.2 E252.11224
G1 X38.521 Y65.6 E252.11907
G1 X81.497 Y65.6 E252.83377
G1 X81.471 Y65.72 E252.83581
G1 X81.39 Y66 E252.84065
G1 X38.614 Y66 E253.55202
G1 X38.708 Y66.4 E253.55886
G1 X81.272 Y66.4 E254.2667
G1 X81.133 Y66.8 E254.27374
G1 X38.816 Y66.8 E254.97747
G1 X38.935 Y67.2 E254.98441
G1 X80.986 Y67.2 E255.68373
G1 X80.818 Y67.6 E255.69094
G1 X39.069 Y67.6 E256.38523
G1 X39.2 Y67.96 E256.3916
G1 X39.217 Y68 E256.39232
G1 X80.65 Y68 E257.08136
G1 X80.481 Y68.4 E257.08858
G1 X39.392 Y68.4 E257.77189
G1 X39.548 Y68.755 E257.77834
G1 X39.571 Y68.8 E257.77918
G1 X80.313 Y68.8 E258.45672
G1 X80.145 Y69.2 E258.46394
G1 X39.779 Y69.2 E259.13523
G1 X39.988 Y69.6 E259.14273
G1 X79.977 Y69.6 E259.80775
G1 X79.809 Y70 E259.81497
G1 X40.196 Y70 E260.47373
G1 X40.404 Y70.4 E260.48123
G1 X79.61 Y70.4 E261.13323
G1 X79.411 Y70.8 E261.14066
G1 X40.613 Y70.8 E261.78587
G1 X40.821 Y71.2 E261.79337
G1 X79.186 Y71.2 E262.43138
G1 X79.048 Y71.435 E262.43591
G1 X78.937 Y71.6 E262.43922
G1 X41.03 Y71.6 E263.06962
G1 X41.126 Y71.77 E263.07286
G1 X41.267 Y72 E263.07735
G1 X78.669 Y72 E263.69935
G1 X78.567 Y72.153 E263.70241
G1 X78.379 Y72.4 E263.70757
G1 X41.514 Y72.4 E264.32064
G1 X41.582 Y72.51 E264.32279
G1 X41.786 Y72.8 E264.32868
G1 X78.075 Y72.8 E264.93217
G1 X77.771 Y73.2 E264.94053
G1 X42.089 Y73.2 E265.53392
G1 X42.41 Y73.6 E265.54245
G1 X77.467 Y73.6 E266.12545
G1 X77.163 Y74 E266.13381
G1 X42.763 Y74 E266.70588
G1 X43.123 Y74.4 E266.71483
G1 X76.86 Y74.4 E267.27588
G1 X76.699 Y74.612 E267.2803
G1 X76.538 Y74.8 E267.28442
