;FLAVOR:Marlin
;TIME:3286
;Filament used: 1.88281m
;Layer height: 0.1
;Generated with Cura_SteamEngine 3.0.4
M190 S60
M104 S210
M109 S210
M82 ; absolute extrusion mode
G28 ;Home
G1 Z15.0 F6000 ;Move the platform down 15mm
;Prime the extruder
G92 E0
G1 F200 E3
G92 E0
;LAYER_COUNT:88
;LAYER:-9
M107
G0 F2250 X44.43 Y44.428 Z0.36
G1 F1125 X44.851 Y44.02 E0.0702
G1 X45.496 Y43.47 E0.17169
G1 X47.953 Y41.604 E0.54111
G1 X48.669 Y41.122 E0.64446
G1 X49.176 Y40.824 E0.71487
G1 X49.335 Y40.74 E0.73641
G1 X50.07 Y40.379 E0.83445
G1 X53.062 Y39.126 E1.22285
G1 X53.872 Y38.85 E1.32531
G1 X54.323 Y38.724 E1.38138
G1 X55.147 Y38.545 E1.48235
G1 X58.319 Y38.073 E1.86633
G1 X58.479 Y38.054 E1.88563
G1 X59.171 Y37.995 E1.96878
G1 X59.784 Y37.978 E2.04221
G1 X60.671 Y38.011 E2.14849
G1 X63.842 Y38.342 E2.53024
G1 X64.652 Y38.474 E2.6285
G1 X65.276 Y38.614 E2.70508
G1 X66.107 Y38.86 E2.80885
G1 X69.134 Y39.982 E3.19539
G1 X69.9 Y40.32 E3.29564
G1 X70.43 Y40.593 E3.36702
G1 X71.295 Y41.116 E3.48805
G1 X73.812 Y42.866 E3.85511
G1 X74.492 Y43.399 E3.95857
G1 X74.937 Y43.794 E4.02981
G1 X75.531 Y44.395 E4.13099
G1 X75.642 Y44.515 E4.15056
G1 X77.725 Y46.933 E4.5327
G1 X78.168 Y47.516 E4.62037
G1 X78.508 Y48.021 E4.69327
G1 X78.996 Y48.865 E4.81
G1 X80.368 Y51.626 E5.17916
G1 X80.714 Y52.437 E5.28474
G1 X80.947 Y53.102 E5.36911
G1 X81.175 Y53.93 E5.47194
G1 X81.818 Y56.956 E5.84235
G1 X81.95 Y57.815 E5.94641
G1 X82.012 Y58.549 E6.03461
G1 X82.026 Y59.387 E6.13496
G1 X81.886 Y62.631 E6.52375
G1 X81.795 Y63.459 E6.62349
G1 X81.691 Y64.056 E6.69605
G1 X81.496 Y64.873 E6.79662
G1 X80.556 Y67.975 E7.18472
G1 X80.252 Y68.781 E7.28787
G1 X79.994 Y69.347 E7.36235
G1 X79.6 Y70.09 E7.46305
G1 X78.004 Y72.727 E7.83212
G1 X77.533 Y73.411 E7.93156
G1 X77.426 Y73.555 E7.95304
G1 X77.049 Y74.023 E8.02499
G1 X76.493 Y74.634 E8.12391
G1 X74.194 Y76.881 E8.50883
G1 X73.542 Y77.439 E8.61158
G1 X73.049 Y77.808 E8.68532
G1 X72.346 Y78.272 E8.78617
G1 X69.537 Y79.889 E9.17426
G1 X68.917 Y80.196 E9.2571
G1 X68.345 Y80.442 E9.33165
G1 X67.546 Y80.725 E9.43315
G1 X67.406 Y80.769 E9.45072
G1 X64.433 Y81.6 E9.82034
G1 X63.601 Y81.781 E9.92229
G1 X62.884 Y81.888 E10.00909
G1 X62.025 Y81.955 E10.11226
G1 X58.8 Y82.019 E10.49848
G1 X58.085 Y81.989 E10.58417
G1 X57.347 Y81.913 E10.673
G1 X56.485 Y81.761 E10.77781
G1 X53.487 Y81.058 E11.14652
G1 X52.675 Y80.817 E11.24793
G1 X52.105 Y80.609 E11.32059
G1 X51.197 Y80.205 E11.43958
G1 X48.5 Y78.796 E11.80393
G1 X48.322 Y78.695 E11.82843
G1 X47.603 Y78.253 E11.92949
G1 X47.129 Y77.917 E11.99906
G1 X46.574 Y77.478 E12.08378
G1 X46.446 Y77.369 E12.10392
G1 X44.068 Y75.221 E12.48761
G1 X43.48 Y74.615 E12.58871
G1 X43.096 Y74.164 E12.65964
G1 X42.654 Y73.585 E12.74686
G1 X40.871 Y70.909 E13.13188
G1 X40.785 Y70.771 E13.15135
G1 X40.366 Y70.036 E13.25265
G1 X40.108 Y69.505 E13.32334
G1 X39.781 Y68.717 E13.42549
G1 X38.762 Y65.796 E13.79592
G1 X38.535 Y65 E13.89503
G1 X38.49 Y64.818 E13.91747
G1 X38.373 Y64.242 E13.98785
G1 X38.267 Y63.528 E14.07428
G1 X37.996 Y60.327 E14.45893
G1 X37.988 Y60.181 E14.47643
G1 X37.975 Y59.343 E14.57679
G1 X38.005 Y58.736 E14.64955
G1 X38.095 Y57.903 E14.74988
G1 X38.609 Y54.861 E15.11928
G1 X38.801 Y54.016 E15.22303
G1 X38.963 Y53.462 E15.29214
G1 X39.265 Y52.636 E15.39745
G1 X39.329 Y52.479 E15.41775
G1 X40.626 Y49.576 E15.79846
G1 X41.036 Y48.8 E15.90355
G1 X41.344 Y48.3 E15.97386
G1 X41.773 Y47.681 E16.06404
G1 X43.835 Y45.08 E16.46147
G1 X44.43 Y44.428 E16.56716
G0 F2250 X44.8 Y44.069
G1 F1125 X44.8 Y75.882 E20.37633
G0 F2250 X46.4 Y77.327
G1 F1125 X46.4 Y42.783 E24.51251
G0 F2250 X48 Y41.572
G1 F1125 X48 Y78.497 E28.93378
G0 F2250 X49.6 Y79.37
G1 F1125 X49.6 Y40.609 E33.57489
G0 F2250 X51.2 Y39.905
G1 F1125 X51.2 Y80.206 E38.40039
G0 F2250 X52.8 Y80.854
G1 F1125 X52.8 Y39.235 E43.3837
G0 F2250 X54.4 Y38.707
G1 F1125 X54.4 Y81.272 E48.48028
G0 F2250 X56 Y81.647
G1 F1125 X56 Y38.418 E53.65637
G0 F2250 X57.6 Y38.179
G1 F1125 X57.6 Y81.939 E58.89604
G0 F2250 X59.2 Y82.012
G1 F1125 X59.2 Y37.994 E64.1666
G0 F2250 X60.8 Y38.025
G1 F1125 X60.8 Y81.98 E69.42962
G0 F2250 X62.4 Y81.926
G1 F1125 X62.4 Y38.192 E74.66617
G0 F2250 X64 Y38.368
G1 F1125 X64 Y81.695 E79.854
G0 F2250 X65.6 Y81.274
G1 F1125 X65.6 Y38.71 E84.95046
G0 F2250 X67.2 Y39.266
G1 F1125 X67.2 Y80.827 E89.92683
G0 F2250 X68.8 Y80.247
G1 F1125 X68.8 Y39.859 E94.76275
G0 F2250 X70.4 Y40.578
G1 F1125 X70.4 Y79.393 E99.41032
G0 F2250 X72 Y78.472
G1 F1125 X72 Y41.607 E103.8244
G0 F2250 X73.6 Y42.719
G1 F1125 X73.6 Y77.39 E107.97579
G0 F2250 X75.2 Y75.898
G1 F1125 X75.2 Y44.061 E111.78784
G0 F2250 X76.8 Y45.86
G1 F1125 X76.8 Y74.297 E115.19278
G0 F2250 X78.4 Y72.073
G1 F1125 X78.4 Y47.861 E118.09184
G0 F2250 X80 Y50.886
G1 F1125 X80 Y69.334 E120.30074
G0 F2250 X81.6 Y64.438
G1 F1125 X81.6 Y55.931 E121.31934
G0 F2250 X43.2 Y45.88
G1 F1125 X43.2 Y74.286 E124.72058
G0 F2250 X41.6 Y72.003
G1 F1125 X41.6 Y47.93 E127.60299
G0 F2250 X40 Y50.977
G1 F1125 X40 Y69.244 E129.79022
G0 F2250 X38.4 Y64.374
G1 F1125 X38.4 Y56.097 E130.78128
G0 F2250 X44.428 Y44.428
;TIME_ELAPSED:63.053298
;LAYER:-8
M140 S60
G0 X44.428 Y44.428 Z0.51
;TYPE:SUPPORT
G1 F1125 X44.429 Y44.428 E130.78133
G1 X44.85 Y44.02 E130.81058
G1 X45.165 Y43.751 E130.83124
G1 X76.267 Y74.852 E133.02562
G1 X76.491 Y74.633 E133.04125
G1 X76.955 Y74.126 E133.07554
G1 X45.952 Y43.123 E135.26297
G1 X46.756 Y42.513 E135.31332
G1 X77.582 Y73.339 E137.48826
G1 X78.003 Y72.726 E137.52536
G1 X78.146 Y72.489 E137.53917
G1 X47.56 Y41.903 E139.69718
G1 X47.952 Y41.604 E139.72177
G1 X48.384 Y41.313 E139.74776
G1 X78.679 Y71.608 E141.88523
G1 X79.213 Y70.728 E141.93659
G1 X49.263 Y40.778 E144.04972
G1 X49.334 Y40.739 E144.05376
G1 X50.069 Y40.379 E144.0946
G1 X50.217 Y40.317 E144.1026
G1 X79.734 Y69.835 E146.18522
G1 X79.993 Y69.347 E146.21278
G1 X80.202 Y68.889 E146.2379
G1 X51.213 Y39.899 E148.28327
G1 X52.21 Y39.482 E148.33718
G1 X80.59 Y67.862 E150.33954
G1 X80.919 Y66.777 E150.39611
G1 X53.215 Y39.073 E152.35078
G1 X53.871 Y38.849 E152.38536
G1 X54.29 Y38.733 E152.40705
G1 X81.247 Y65.691 E154.30905
G1 X81.495 Y64.872 E154.35174
G1 X81.562 Y64.592 E154.3661
G1 X55.468 Y38.497 E156.20721
G1 X56.699 Y38.314 E156.2693
G1 X81.799 Y63.414 E158.04024
G1 X81.885 Y62.63 E158.07959
G1 X81.908 Y62.109 E158.10561
G1 X57.929 Y38.13 E159.79746
G1 X58.318 Y38.072 E159.81708
G1 X58.478 Y38.054 E159.82511
G1 X59.169 Y37.994 E159.85971
G1 X59.207 Y37.994 E159.86161
G1 X81.967 Y60.753 E161.46742
G1 X82.025 Y59.398 E161.53508
G1 X60.637 Y38.009 E163.04415
G1 X60.67 Y38.01 E163.0458
G1 X62.213 Y38.171 E163.1232
G1 X81.958 Y57.916 E164.51631
G1 X81.949 Y57.814 E164.52142
G1 X81.817 Y56.956 E164.56473
G1 X81.658 Y56.202 E164.60318
G1 X63.792 Y38.336 E165.86372
G1 X63.841 Y38.341 E165.86618
G1 X64.651 Y38.474 E165.90713
G1 X65.275 Y38.614 E165.93903
G1 X65.572 Y38.702 E165.95449
G1 X81.276 Y54.406 E167.06249
G1 X81.174 Y53.929 E167.08683
G1 X80.946 Y53.101 E167.12967
G1 X80.712 Y52.436 E167.16484
G1 X80.707 Y52.422 E167.16559
G1 X67.755 Y39.471 E168.07938
G1 X69.133 Y39.981 E168.15269
G1 X69.899 Y40.319 E168.19446
G1 X70.145 Y40.447 E168.2083
G1 X79.421 Y49.723 E168.86277
G1 X78.995 Y48.865 E168.91056
G1 X78.507 Y48.021 E168.9592
G1 X78.167 Y47.516 E168.98957
G1 X77.724 Y46.932 E169.02614
G1 X75.729 Y44.617 E169.17861
G1 X74.669 Y43.557 E169.2534
G0 F2250 X44.428 Y44.428
G1 F1125 X75.552 Y75.552 E171.44936
G1 X74.837 Y76.251 E171.49925
G1 X43.759 Y45.173 E173.69197
G1 X43.134 Y45.962 E173.74219
G1 X74.117 Y76.945 E175.9282
G1 X73.541 Y77.438 E175.96603
G1 X73.343 Y77.586 E175.97836
G1 X42.508 Y46.751 E178.15394
G1 X41.883 Y47.54 E178.20415
G1 X72.507 Y78.164 E180.36484
G1 X72.346 Y78.271 E180.37449
G1 X71.618 Y78.689 E180.41637
G1 X41.299 Y48.37 E182.55554
G1 X41.036 Y48.798 E182.5806
G1 X40.785 Y49.271 E182.60732
G1 X70.721 Y79.206 E184.71943
G1 X69.823 Y79.722 E184.7711
G1 X40.332 Y50.232 E186.85181
G1 X39.895 Y51.209 E186.90521
G1 X68.891 Y80.205 E188.95103
G1 X68.345 Y80.441 E188.98071
G1 X67.878 Y80.605 E189.0054
G1 X39.459 Y52.187 E191.01048
G1 X39.329 Y52.478 E191.02638
G1 X39.264 Y52.634 E191.03481
G1 X39.057 Y53.199 E191.06483
G1 X66.796 Y80.938 E193.02197
G1 X65.69 Y81.247 E193.07926
G1 X38.737 Y54.293 E194.98098
G1 X38.609 Y54.86 E195.00998
G1 X38.504 Y55.475 E195.0411
G1 X64.585 Y81.555 E196.88122
G1 X64.432 Y81.598 E196.88915
G1 X63.6 Y81.78 E196.93164
G1 X63.421 Y81.806 E196.94067
G1 X38.3 Y56.685 E198.71309
G1 X38.095 Y57.894 E198.77427
G1 X62.145 Y81.944 E200.47112
G1 X62.025 Y81.954 E200.47713
G1 X60.765 Y81.979 E200.54
G1 X37.982 Y59.195 E202.1475
G1 X37.975 Y59.342 E202.15485
G1 X37.987 Y60.179 E202.19661
G1 X37.995 Y60.326 E202.20395
G1 X38.022 Y60.649 E202.22012
G1 X59.379 Y82.006 E203.72698
G1 X58.8 Y82.018 E203.75587
G1 X58.085 Y81.988 E203.79157
G1 X57.93 Y81.972 E203.79935
G1 X38.153 Y62.194 E205.19475
G1 X38.266 Y63.527 E205.2615
G1 X38.3 Y63.756 E205.27305
G1 X56.248 Y81.704 E206.53938
G1 X54.401 Y81.271 E206.63402
G1 X38.697 Y65.567 E207.74202
G1 X38.762 Y65.794 E207.7538
G1 X39.432 Y67.716 E207.85535
G1 X52.449 Y80.733 E208.77377
G1 X52.104 Y80.608 E208.79208
G1 X51.197 Y80.204 E208.84161
G1 X49.749 Y79.447 E208.92313
G1 X40.405 Y70.103 E209.5824
G1 X40.785 Y70.77 E209.6207
G1 X40.87 Y70.908 E209.62879
G1 X42.654 Y73.584 E209.78924
G1 X43.096 Y74.163 E209.82558
G1 X43.356 Y74.469 E209.84561
G1 X44.476 Y75.589 E209.92464
G0 F2250 X44.179 Y44.4
;TIME_ELAPSED:149.405065
;LAYER:-7
G0 X44.179 Y44.4 Z0.61
G1 F1500 X43.823 Y44.8 E209.93354
G1 X76.153 Y44.8 E210.47119
G1 X76.497 Y45.2 E210.47997
G1 X43.481 Y45.2 E211.02902
G1 X43.165 Y45.6 E211.0375
G1 X76.842 Y45.6 E211.59755
G1 X77.186 Y46 E211.60633
G1 X42.849 Y46 E212.17735
G1 X42.532 Y46.4 E212.18584
G1 X77.53 Y46.4 E212.76786
G1 X77.875 Y46.8 E212.77664
G1 X42.216 Y46.8 E213.36965
G1 X41.9 Y47.2 E213.37813
G1 X78.18 Y47.2 E213.98147
G1 X78.323 Y47.389 E213.98541
G1 X78.466 Y47.6 E213.98965
G1 X41.586 Y47.6 E214.60297
G1 X41.312 Y48 E214.61103
G1 X78.727 Y48 E215.23325
G1 X78.959 Y48.4 E215.24093
G1 X41.046 Y48.4 E215.87143
G1 X40.808 Y48.8 E215.87917
G1 X79.188 Y48.8 E216.51743
G1 X79.387 Y49.2 E216.52486
G1 X40.597 Y49.2 E217.16994
G1 X40.452 Y49.477 E217.17514
G1 X40.398 Y49.6 E217.17738
G1 X79.586 Y49.6 E217.82908
G1 X79.784 Y50 E217.8365
G1 X40.219 Y50 E218.49447
G1 X40.04 Y50.4 E218.50175
G1 X79.983 Y50.4 E219.16601
G1 X80.182 Y50.8 E219.17344
G1 X39.861 Y50.8 E219.84398
G1 X39.682 Y51.2 E219.85127
G1 X80.381 Y51.2 E220.52809
G1 X80.55 Y51.542 E220.53444
G1 X80.577 Y51.6 E220.5355
G1 X39.504 Y51.6 E221.21855
G1 X39.325 Y52 E221.22584
G1 X80.747 Y52 E221.91469
G1 X80.914 Y52.4 E221.9219
G1 X39.146 Y52.4 E222.6165
G1 X39.075 Y52.572 E222.6196
G1 X38.992 Y52.8 E222.62363
G1 X81.055 Y52.8 E223.32314
G1 X81.139 Y53.047 E223.32748
G1 X81.182 Y53.2 E223.33012
G1 X38.846 Y53.2 E224.03417
G1 X38.776 Y53.39 E224.03754
G1 X38.715 Y53.6 E224.04118
G1 X81.291 Y53.6 E224.74922
G1 X81.37 Y53.888 E224.75419
G1 X81.394 Y54 E224.75609
G1 X38.601 Y54 E225.46774
G1 X38.509 Y54.4 E225.47457
G1 X81.479 Y54.4 E226.18916
G1 X81.565 Y54.8 E226.19596
G1 X38.418 Y54.8 E226.9135
G1 X38.413 Y54.821 E226.91386
G1 X38.35 Y55.2 E226.92025
G1 X81.65 Y55.2 E227.64033
G1 X81.735 Y55.6 E227.64713
G1 X38.283 Y55.6 E228.36974
G1 X38.216 Y56 E228.37649
G1 X81.82 Y56 E229.10162
G1 X81.905 Y56.4 E229.10843
G1 X38.149 Y56.4 E229.83609
G1 X38.081 Y56.8 E229.84284
G1 X81.99 Y56.8 E230.57305
G1 X82.015 Y56.92 E230.57509
G1 X82.059 Y57.2 E230.5798
G1 X38.014 Y57.2 E231.31227
G1 X37.947 Y57.6 E231.31902
G1 X82.12 Y57.6 E232.05362
G1 X82.147 Y57.778 E232.05661
G1 X82.168 Y58 E232.06032
G1 X37.881 Y58 E232.79681
G1 X37.841 Y58.4 E232.8035
G1 X82.204 Y58.4 E233.54126
G1 X82.212 Y58.543 E233.54364
G1 X82.217 Y58.8 E233.54792
G1 X37.801 Y58.8 E234.28656
G1 X37.794 Y58.866 E234.28766
G1 X37.781 Y59.2 E234.29322
G1 X82.223 Y59.2 E235.03229
G1 X82.226 Y59.395 E235.03554
G1 X82.217 Y59.6 E235.03895
G1 X37.778 Y59.6 E235.77797
G1 X37.784 Y60 E235.78462
G1 X82.199 Y60 E236.52325
G1 X82.182 Y60.4 E236.52991
G1 X37.8 Y60.4 E237.26798
G1 X37.833 Y60.8 E237.27466
G1 X82.165 Y60.8 E238.0119
G1 X82.147 Y61.2 E238.01856
G1 X37.867 Y61.2 E238.75494
G1 X37.9 Y61.6 E238.76161
G1 X82.13 Y61.6 E239.49716
G1 X82.113 Y62 E239.50382
G1 X37.933 Y62 E240.23854
G1 X37.967 Y62.4 E240.24521
G1 X82.095 Y62.4 E240.97906
G1 X82.085 Y62.651 E240.98324
G1 X82.068 Y62.8 E240.98574
G1 X38 Y62.8 E241.71859
G1 X38.034 Y63.2 E241.72527
G1 X82.024 Y63.2 E242.45682
G1 X81.994 Y63.482 E242.46154
G1 X81.973 Y63.6 E242.46353
G1 X38.077 Y63.6 E243.19352
G1 X38.134 Y64 E243.20024
G1 X81.902 Y64 E243.92811
G1 X81.885 Y64.101 E243.92981
G1 X81.814 Y64.4 E243.93492
G1 X38.2 Y64.4 E244.66023
G1 X38.282 Y64.8 E244.66702
G1 X81.72 Y64.8 E245.38939
G1 X81.712 Y64.836 E245.39001
G1 X81.602 Y65.2 E245.39633
G1 X38.383 Y65.2 E246.11507
G1 X38.498 Y65.6 E246.12199
G1 X81.481 Y65.6 E246.8368
G1 X81.36 Y66 E246.84375
G1 X38.621 Y66 E247.5545
G1 X38.761 Y66.4 E247.56155
G1 X81.24 Y66.4 E248.26798
G1 X81.119 Y66.8 E248.27493
G1 X38.9 Y66.8 E248.97703
G1 X39.04 Y67.2 E248.98408
G1 X80.998 Y67.2 E249.68184
G1 X80.877 Y67.6 E249.68879
G1 X39.18 Y67.6 E250.38222
G1 X39.32 Y68 E250.38926
G1 X80.757 Y68 E251.07836
G1 X80.744 Y68.044 E251.07913
G1 X80.609 Y68.4 E251.08546
G1 X39.46 Y68.4 E251.76977
G1 X39.6 Y68.8 E251.77682
G1 X80.457 Y68.8 E252.45627
G1 X80.434 Y68.863 E252.45739
G1 X80.279 Y69.2 E252.46356
G1 X39.762 Y69.2 E253.13736
G1 X39.932 Y69.6 E253.14458
G1 X80.086 Y69.6 E253.81235
G1 X79.878 Y70 E253.81984
G1 X40.126 Y70 E254.48092
G1 X40.248 Y70.241 E254.48542
G1 X40.34 Y70.4 E254.48847
G1 X79.641 Y70.4 E255.14205
G1 X79.399 Y70.8 E255.14982
G1 X40.574 Y70.8 E255.79549
G1 X40.696 Y71.008 E255.7995
G1 X40.823 Y71.2 E255.80332
G1 X79.158 Y71.2 E256.44084
G1 X78.917 Y71.6 E256.4486
G1 X41.089 Y71.6 E257.07769
G1 X41.354 Y72 E257.08567
G1 X78.675 Y72 E257.70632
G1 X78.434 Y72.4 E257.71408
G1 X41.62 Y72.4 E258.3263
G1 X41.886 Y72.8 E258.33429
G1 X78.193 Y72.8 E258.93808
G1 X78.171 Y72.837 E258.93879
G1 X77.92 Y73.2 E258.94613
G1 X42.151 Y73.2 E259.54097
G1 X42.408 Y73.586 E259.54869
G1 X42.418 Y73.6 E259.54897
G1 X77.639 Y73.6 E260.1347
G1 X77.328 Y74 E260.14313
G1 X42.72 Y74 E260.71866
G1 X42.939 Y74.29 E260.7247
G1 X43.032 Y74.4 E260.7271
G1 X76.976 Y74.4 E261.29159
G1 X76.633 Y74.777 E261.30007
G1 X76.609 Y74.8 E261.30062
G1 X43.38 Y74.8 E261.85322
G1 X43.768 Y75.2 E261.86249
G1 X76.2 Y75.2 E262.40183
G1 X75.792 Y75.6 E262.41133
G1 X44.188 Y75.6 E262.93691
G1 X44.631 Y76 E262.94684
G1 X75.383 Y76 E263.45824
G1 X74.974 Y76.4 E263.46776
G1 X45.074 Y76.4 E263.965
G1 X45.517 Y76.8 E263.97492
G1 X74.566 Y76.8 E264.45801
G1 X74.411 Y76.952 E264.46162
G1 X74.126 Y77.2 E264.4679
G1 X45.959 Y77.2 E264.93632
G1 X46.321 Y77.526 E264.94442
G1 X46.413 Y77.6 E264.94639
G1 X73.655 Y77.6 E265.39942
G1 X73.296 Y77.877 E265.40696
G1 X73.111 Y78 E265.41066
G1 X46.911 Y78 E265.84637
G1 X47.009 Y78.078 E265.84845
G1 X47.463 Y78.4 E265.85771
G1 X72.513 Y78.4 E266.27429
G1 X72.446 Y78.445 E266.27563
G1 X71.831 Y78.8 E266.28744
G1 X48.11 Y78.8 E266.68192
G1 X48.229 Y78.873 E266.68424
G1 X48.396 Y78.967 E266.68743
G1 X48.843 Y79.2 E266.69581
G1 X71.138 Y79.2 E267.06658
G1 X70.446 Y79.6 E267.07987
G1 X49.61 Y79.6 E267.42638
G1 X50.378 Y80 E267.44078
G1 X69.752 Y80 E267.76297
G1 X69.626 Y80.068 E267.76535
G1 X69 Y80.378 E267.77697
G1 X68.949 Y80.4 E267.77789
G1 X51.145 Y80.4 E268.07397
G1 X51.238 Y80.448 E268.07571
G1 X52.034 Y80.797 E268.09017
G1 X52.042 Y80.8 E268.09031
G1 X67.933 Y80.8 E268.35458
G1 X67.606 Y80.916 E268.36035
G1 X67.472 Y80.958 E268.36268
G1 X66.606 Y81.2 E268.37764
G1 X53.249 Y81.2 E268.59976
G1 X53.314 Y81.22 E268.60089
G1 X54.938 Y81.6 E268.62863
G1 X65.176 Y81.6 E268.79889
G1 X64.472 Y81.797 E268.81105
G1 X63.51 Y82 E268.8274
G1 X56.664 Y82 E268.94125
G0 F2250 X44.179 Y44.4
G1 F1500 X75.808 Y44.4 E269.46724
G1 X75.789 Y44.378 E269.46772
G1 X75.424 Y44 E269.47646
G1 X44.587 Y44 E269.98928
G1 X44.72 Y43.869 E269.99239
G1 X45.036 Y43.6 E269.99929
G1 X75.017 Y43.6 E270.49787
G1 X74.731 Y43.339 E270.50431
G1 X74.558 Y43.2 E270.508
